apps/scalable/vscode.svg

<svg height="48" width="48" xmlns="http://www.w3.org/2000/svg" xmlns:xlink="http://www.w3.org/1999/xlink"><linearGradient id="a" gradientUnits="userSpaceOnUse" x1="22.74885" x2="22.373344" y1="33.77472" y2="7.585956"><stop offset="0" stop-color="#666"/><stop offset="1" stop-color="#808080"/></linearGradient><linearGradient id="b" gradientUnits="userSpaceOnUse" x1="16.557359" x2="16.17652" y1="40.947517" y2="15.596445"><stop offset="0" stop-color="#3771c8"/><stop offset="1" stop-color="#28a7c8"/></linearGradient><linearGradient id="c"><stop offset="0" stop-color="#cdd0d1"/><stop offset="1" stop-color="#f6f6f7"/></linearGradient><linearGradient id="d" gradientUnits="userSpaceOnUse" x1="11.660663" x2="10.415977" xlink:href="#c" y1="56.928329" y2="32.880904"/><linearGradient id="e" gradientUnits="userSpaceOnUse" x1="14.428456" x2="5.505778" y1="47.467573" y2="39.642166"><stop offset="0" stop-color="#16a085"/><stop offset="1" stop-color="#2dcb72"/></linearGradient><filter id="f" color-interpolation-filters="sRGB"><feColorMatrix values="0.21 0.72 0.072 0 0 0.21 0.72 0.072 0 0 0.21 0.72 0.072 0 0 0 0 0 1 0"/></filter><linearGradient id="g" gradientUnits="userSpaceOnUse" x1="20.489271" x2="29.533718" xlink:href="#c" y1="40.735912" y2="14.445042"/><path d="m7.4911629 7.7210522h32.4286611c.595778 0 1.075411.4796333 1.075411 1.0754109v23.8712579c0 .595777-.479633 1.075411-1.075411 1.075411h-32.4286611c-.5957777 0-1.075411-.479634-1.075411-1.075411v-23.8712579c0-.5957776.4796333-1.0754109 1.075411-1.0754109z" fill="url(#a)" stroke-width=".69661" transform="matrix(.99985212 -.01719697 .01719697 .99985212 0 0)"/><path d="m.31970203 15.516453h32.41642697c.595551 0 1.075001.47945 1.075001 1.075001v23.861985c0 .595551-.47945 1.075001-1.075001 1.075001h-32.41642697c-.59555056 0-1.075001-.47945-1.075001-1.075001v-23.861985c0-.595551.47945044-1.075001 1.075001-1.075001z" fill="url(#b)" stroke-width=".716667" transform="matrix(.9859804 -.16686119 .16686119 .9859804 0 0)"/><path d="m28.11797 36.140045-6.378488-6.37849-2.847166 2.21885c-1.56594 1.220368-3.396111 2.646642-4.067054 3.169497l-1.219894.950647-1.602615-.800643-1.602609-.800643v-8.038732-8.038731l1.594754-.797124 1.594749-.797124.139419.103111c.07667.05671 1.895185 1.48793 4.041127 3.180487 2.145937 1.692556 3.914025 3.073666 3.929076 3.069132.01504-.0046 2.901634-2.882478 6.414631-6.395432l6.387259-6.387189 4.007681 1.597687 4.007683 1.597687-.0092 12.843571-.0092 12.843574-3.982564 1.619649c-2.190409.890808-3.990792 1.619437-4.000845 1.619177-.01005-.000276-2.888605-2.870793-6.396775-6.378961zm6.396787-9.67965c0-3.587048-.01233-6.520914-.02742-6.5197-.04442.0036-8.38738 6.479667-8.39914 6.5197-.0103.03509 8.342965 6.521105 8.39914 6.521644.01504.000137.02742-2.934596.02742-6.521644zm-18.467844 2.465627 2.391109-2.465627-2.402059-2.402327c-1.321136-1.32128-2.414438-2.402327-2.429565-2.402327-.01517 0-.02749 2.196348-.02749 4.880774 0 3.400223.01169 4.876883.03849 4.867953.02117-.0071 1.114458-1.122352 2.429565-2.478446z" fill="url(#g)" stroke-width=".036537" transform="matrix(.4828126 -.08296238 .08296238 .4828126 4.920141 14.602162)"/><path d="m23.532757 45.12323a12.348694 12.348694 0 0 1 -12.348694 12.348694 12.348694 12.348694 0 0 1 -12.3486939-12.348694 12.348694 12.348694 0 0 1 12.3486939-12.348694 12.348694 12.348694 0 0 1 12.348694 12.348694z" fill="url(#d)" filter="url(#f)" transform="matrix(.5432213 -.00748673 .00748673 .5432213 31.417736 8.377956)"/><path d="m14.428456 47.271288-8.9226783.196284 4.2913527-7.825408z" fill="url(#e)" filter="url(#f)" transform="matrix(-.00093004 .63199031 -.63199031 -.00093004 65.767594 26.567508)"/></svg>

<?xml version="1.0" encoding="UTF-8" standalone="no"?>
<svg
   xmlns:dc="http://purl.org/dc/elements/1.1/"
   xmlns:cc="http://creativecommons.org/ns#"
   xmlns:rdf="http://www.w3.org/1999/02/22-rdf-syntax-ns#"
   xmlns:svg="http://www.w3.org/2000/svg"
   xmlns="http://www.w3.org/2000/svg"
   xmlns:xlink="http://www.w3.org/1999/xlink"
   xmlns:sodipodi="http://sodipodi.sourceforge.net/DTD/sodipodi-0.dtd"
   xmlns:inkscape="http://www.inkscape.org/namespaces/inkscape"
   height="48"
   width="48"
   version="1.1"
   id="svg42"
   sodipodi:docname="vscode.svg"
   inkscape:version="0.92.2 5c3e80d, 2017-08-06">
  <metadata
     id="metadata48">
    <rdf:RDF>
      <cc:Work
         rdf:about="">
        <dc:format>image/svg+xml</dc:format>
        <dc:type
           rdf:resource="http://purl.org/dc/dcmitype/StillImage" />
      </cc:Work>
    </rdf:RDF>
  </metadata>
  <defs
     id="defs46" />
  <sodipodi:namedview
     pagecolor="#ffffff"
     bordercolor="#666666"
     borderopacity="1"
     objecttolerance="10"
     gridtolerance="10"
     guidetolerance="10"
     inkscape:pageopacity="0"
     inkscape:pageshadow="2"
     inkscape:window-width="1366"
     inkscape:window-height="698"
     id="namedview44"
     showgrid="false"
     inkscape:zoom="4.9166667"
     inkscape:cx="20.440678"
     inkscape:cy="24"
     inkscape:window-x="0"
     inkscape:window-y="0"
     inkscape:window-maximized="1"
     inkscape:current-layer="svg42" />
  <linearGradient
     id="a"
     gradientUnits="userSpaceOnUse"
     x1="22.74885"
     x2="22.373344"
     y1="33.77472"
     y2="7.585956">
    <stop
       offset="0"
       stop-color="#666"
       id="stop2" />
    <stop
       offset="1"
       stop-color="#808080"
       id="stop4" />
  </linearGradient>
  <linearGradient
     id="b"
     gradientUnits="userSpaceOnUse"
     x1="16.5573590214"
     x2="16.176519873492"
     y1="40.947516718261"
     y2="15.596444768743">
    <stop
       offset="0"
       stop-color="#3771c8"
       id="stop7" />
    <stop
       offset="1"
       stop-color="#28a7c8"
       id="stop9" />
  </linearGradient>
  <linearGradient
     id="c">
    <stop
       offset="0"
       stop-color="#cdd0d1"
       id="stop12" />
    <stop
       offset="1"
       stop-color="#f6f6f7"
       id="stop14" />
  </linearGradient>
  <linearGradient
     id="d"
     gradientUnits="userSpaceOnUse"
     x1="11.660663"
     x2="10.415977"
     xlink:href="#c"
     y1="56.928329"
     y2="32.880904" />
  <linearGradient
     id="e"
     gradientUnits="userSpaceOnUse"
     x1="14.428456"
     x2="5.505778"
     y1="47.467573"
     y2="39.642166">
    <stop
       offset="0"
       stop-color="#16a085"
       id="stop18" />
    <stop
       offset="1"
       stop-color="#2dcb72"
       id="stop20" />
  </linearGradient>
  <filter
     id="f"
     color-interpolation-filters="sRGB">
    <feColorMatrix
       values="0.21 0.72 0.072 0 0 0.21 0.72 0.072 0 0 0.21 0.72 0.072 0 0 0 0 0 1 0"
       id="feColorMatrix23" />
  </filter>
  <linearGradient
     id="h"
     gradientUnits="userSpaceOnUse"
     x1="20.489271"
     x2="29.533718"
     xlink:href="#c"
     y1="40.735912"
     y2="14.445042" />
  <g
     id="g66">
    <g
       id="g58">
      <path
         transform="matrix(.99985212 -.01719697 .01719697 .99985212 0 0)"
         style="fill:url(#a);stroke-width:0.69660997"
         clip-path="none"
         d="M 7.4911629,7.7210522 H 39.919824 c 0.595778,0 1.075411,0.4796333 1.075411,1.0754109 V 32.667721 c 0,0.595777 -0.479633,1.075411 -1.075411,1.075411 H 7.4911629 c -0.5957777,0 -1.075411,-0.479634 -1.075411,-1.075411 V 8.7964631 c 0,-0.5957776 0.4796333,-1.0754109 1.075411,-1.0754109 z"
         id="rect30" />
      <path
         transform="matrix(.9859804 -.16686119 .16686119 .9859804 0 0)"
         style="fill:url(#b);stroke-width:0.716667"
         clip-path="none"
         d="M 0.31970203,15.516453 H 32.736129 c 0.595551,0 1.075001,0.47945 1.075001,1.075001 v 23.861985 c 0,0.595551 -0.47945,1.075001 -1.075001,1.075001 H 0.31970203 c -0.59555056,0 -1.075001,-0.47945 -1.075001,-1.075001 V 16.591454 c 0,-0.595551 0.47945044,-1.075001 1.075001,-1.075001 z"
         id="rect32" />
      <path
         clip-path="none"
         d="m28.11797 36.140045-6.378488-6.37849-2.847166 2.21885c-1.56594 1.220368-3.396111 2.646642-4.067054 3.169497l-1.219894.950647-1.602615-.800643-1.602609-.800643v-8.038732-8.038731l1.594754-.797124 1.594749-.797124.139419.103111c.07667.05671 1.895185 1.48793 4.041127 3.180487 2.145937 1.692556 3.914025 3.073666 3.929076 3.069132.01504-.0046 2.901634-2.882478 6.414631-6.395432l6.387259-6.387189 4.007681 1.597687 4.007683 1.597687-.0092 12.843571-.0092 12.843574-3.982564 1.619649c-2.190409.890808-3.990792 1.619437-4.000845 1.619177-.01005-.000276-2.888605-2.870793-6.396775-6.378961zm6.396787-9.67965c0-3.587048-.01233-6.520914-.02742-6.5197-.04442.0036-8.38738 6.479667-8.39914 6.5197-.0103.03509 8.342965 6.521105 8.39914 6.521644.01504.000137.02742-2.934596.02742-6.521644zm-18.467844 2.465627 2.391109-2.465627-2.402059-2.402327c-1.321136-1.32128-2.414438-2.402327-2.429565-2.402327-.01517 0-.02749 2.196348-.02749 4.880774 0 3.400223.01169 4.876883.03849 4.867953.02117-.0071 1.114458-1.122352 2.429565-2.478446z"
         fill="url(#h)"
         stroke-width=".036537"
         transform="matrix(.4828126 -.08296238 .08296238 .4828126 4.920141 14.602162)"
         id="path34" />
      <path
         transform="matrix(0.5432213,-0.00748673,0.00748673,0.5432213,31.417736,8.377956)"
         style="fill:url(#d);filter:url(#f)"
         clip-path="none"
         d="M 23.532757,45.12323 A 12.348694,12.348694 0 0 1 11.184063,57.471924 12.348694,12.348694 0 0 1 -1.1646309,45.12323 12.348694,12.348694 0 0 1 11.184063,32.774536 12.348694,12.348694 0 0 1 23.532757,45.12323 Z"
         id="circle36" />
      <path
         inkscape:connector-curvature="0"
         style="fill:url(#e);filter:url(#f)"
         id="path38"
         transform="matrix(-9.3004215e-4,0.63199031,-0.63199031,-9.3004215e-4,65.767594,26.567508)"
         d="M 14.428456,47.271288 5.5057777,47.467572 9.7971304,39.642164 Z"
         clip-path="none" />
    </g>
  </g>
</svg>
